X:361
T: MAEDCHEN MIT DEN BLAUEN AUGEN
N: B0427A
O: Europa, Mitteleuropa, Deutschland, Westerwald, Niegerwambach
R: Liebes - Lied, Liebes - Lust
M: 3/4
L: 1/16
K: C
 | G,3A,G,2A,2G,2E2 | E4C4
F2E2 | E4D2G,2A,2B,2 | C8
F2E2 | D2G2G4F2D2 | C2E2E4
F2E2 | D2G2G4F2D2 | C2E2E4z4 |
G,3A,G,2A,2G,2E2 | E4C4
A2G2 | G4F2G,2A,2B,2 | C8z4

@@@ Tune index: 2164
